ic16/ic16__table.svg

<svg fill="none" height="16" width="16" xmlns="http://www.w3.org/2000/svg" xmlns:xlink="http://www.w3.org/1999/xlink"><clipPath id="a"><path d="m0 0h16v16h-16z"/></clipPath><g clip-path="url(#a)"><path clip-rule="evenodd" d="m0 1.75c0-.966.784-1.75 1.75-1.75h12.5c.966 0 1.75.784 1.75 1.75v3.585a.746.746 0 0 1 0 .83v8.085a1.75 1.75 0 0 1 -1.75 1.75h-7.941a.75.75 0 0 1 -1.118 0h-3.441a1.75 1.75 0 0 1 -1.75-1.75v-8.085a.746.746 0 0 1 0-.83zm1.5 4.75v7.75c0 .138.112.25.25.25h3.25v-8zm3.5-1.5h-3.5v-3.25a.25.25 0 0 1 .25-.25h3.25zm1.5 1.5v8h7.75a.25.25 0 0 0 .25-.25v-7.75zm8-1.5h-8v-3.5h7.75a.25.25 0 0 1 .25.25z" fill-rule="evenodd"/></g></svg>

<svg width="16" height="16" viewBox="0 0 16 16" fill="none" xmlns="http://www.w3.org/2000/svg">
  <g clip-path="url(#ic16__table__clip0)">
    <path fill-rule="evenodd" clip-rule="evenodd" d="M0 1.75C0 .784.784 0 1.75 0h12.5C15.216 0 16 .784 16 1.75v3.585a.746.746 0 010 .83v8.085A1.75 1.75 0 0114.25 16H6.309a.75.75 0 01-1.118 0H1.75A1.75 1.75 0 010 14.25V6.165a.746.746 0 010-.83V1.75zM1.5 6.5v7.75c0 .138.112.25.25.25H5v-8H1.5zM5 5H1.5V1.75a.25.25 0 01.25-.25H5V5zm1.5 1.5v8h7.75a.25.25 0 00.25-.25V6.5h-8zm8-1.5h-8V1.5h7.75a.25.25 0 01.25.25V5z" />
  </g>
  <defs>
    <clipPath id="ic16__table__clip0">
      <path fill="#fff" d="M0 0h16v16H0z"/>
    </clipPath>
  </defs>
</svg>
